X: 11
T: Sandy Laddy
T: Longways for as many as will.
%R: march
B: Daniel Wright "Wright's Compleat Collection of Celebrated Country Dances" 1740 p.6
S: http://library.efdss.org/cgi-bin/dancebooks.cgi
Z: 2014 John Chambers <jc:trillian.mit.edu>
M: C|
L: 1/8
K: C
% - - - - - - - - - - - - - - - - - - - - - - - - -
d2 |\
B2AG G2A2 | c6 e2 | d4 B4 | c2 A4 dc |\
B2AG G2A2 | c4 c2ef | g4 f4 | e2 c4 |]
ef |\
g4 f4 | e2c2 c2e2 | d4 B4 | c2 A4 dc |\
B2AG G2A2 | c3d e2c2 | g4 f4 | e2 c4 |]
% - - - - - - - - - - - - - - - - - - - - - - - - -
%%begintext align
%% The first Man set to the 2d Wo.
%% turn single .| the first Wo. & 2d man
%% do the same :| hands round all four
%% and turn single Back to Back and
%% right hand and left .| half round :|:
%%endtext
% - - - - - - - - - - - - - - - - - - - - - - - - -
%%sep 2 4 300
